X: 12781
T: Favourite Dram, The
R: slip jig
M: 9/8
K: Gmajor
|:B2c dBG G2f|g2e dBG G2c|B2c dBG GAB|cBc AFD D2c:|
BAB BAB G2c|B2c dBG G2c|BAB BAB GAB|cBc AFD D2c|
BAB BAB G2c|B2c dBG G2c|Bcd def gdB|cBc AFD D2f||
gdB gdB G2f|g2e dBG G2f|gdB gdB GAB|cBc AFD D2f|
gdB gdB G2f|g2e dBG G2c|Bcd def gdB|cBc AFD D2c||

